cssgg/sort-az.svg

<svg
  width="24"
  height="24"
  viewBox="0 0 24 24"
  fill="none"
  xmlns="http://www.w3.org/2000/svg"
>
  <path
    d="M6 8C6 7.44772 6.44772 7 7 7H17C17.5523 7 18 7.44772 18 8C18 8.55228 17.5523 9 17 9H7C6.44772 9 6 8.55228 6 8Z"
    fill="currentColor"
  />
  <path
    d="M8 12C8 11.4477 8.44772 11 9 11H15C15.5523 11 16 11.4477 16 12C16 12.5523 15.5523 13 15 13H9C8.44772 13 8 12.5523 8 12Z"
    fill="currentColor"
  />
  <path
    d="M11 15C10.4477 15 10 15.4477 10 16C10 16.5523 10.4477 17 11 17H13C13.5523 17 14 16.5523 14 16C14 15.4477 13.5523 15 13 15H11Z"
    fill="currentColor"
  />
</svg>

<svg viewBox="0 0 24 24" xmlns="http://www.w3.org/2000/svg"><g><path d="M6 8c0-.56.44-1 1-1h10c.55 0 1 .44 1 1 0 .55-.45 1-1 1H7c-.56 0-1-.45-1-1Z"/><path d="M8 12c0-.56.44-1 1-1h6c.55 0 1 .44 1 1 0 .55-.45 1-1 1H9c-.56 0-1-.45-1-1Z"/><path d="M11 15c-.56 0-1 .44-1 1 0 .55.44 1 1 1h2c.55 0 1-.45 1-1 0-.56-.45-1-1-1h-2Z"/></g></svg>
